packages/tokens/icons/productBadgingCircle/size32Px.svg

<svg viewBox="0 0 32 32" fill="none" xmlns="http://www.w3.org/2000/svg" width="1em" height="1em"><path d="M15.5 6.5L6.16667 6.5C5.24619 6.5 4.5 7.24619 4.5 8.16667L4.5 24.8333C4.5 25.7538 5.24619 26.5 6.16667 26.5L22.8333 26.5C23.7538 26.5 24.5 25.7538 24.5 24.8333L24.5 17.2619" stroke="currentColor" stroke-linecap="round" stroke-linejoin="round"/><path d="M7.5 22.5L18.4 22.5M7.5 19.5L21.5 19.5" stroke="currentColor" stroke-linecap="round"/><circle cx="22.5" cy="9.5" r="5" stroke="currentColor" stroke-linecap="round"/></svg>

<svg xmlns="http://www.w3.org/2000/svg" fill="none" viewBox="0 0 32 32" width="1em" height="1em"><path stroke="currentColor" stroke-linecap="round" stroke-linejoin="round" d="M15.5 6.5H6.167c-.92 0-1.667.746-1.667 1.667v16.666c0 .92.746 1.667 1.667 1.667h16.666c.92 0 1.667-.746 1.667-1.667v-7.571"/><path stroke="currentColor" stroke-linecap="round" d="M7.5 22.5h10.9m-10.9-3h14"/><circle cx="22.5" cy="9.5" r="5" stroke="currentColor" stroke-linecap="round"/></svg>
